X: 51
T: HOLYROOD PALACE
%R: strathspey
B: Jean White "100 Popular Hornpipes, Reels, Jigs and Country Dances", Boston 1880 p.23
F: http://www.loc.gov/resource/sm1880.09124.0#seq-1
Z: 2014 John Chambers <jc:trillian.mit.edu>
N: The 2nd strains has an initial repeat, but no final repeat; not fixed.
M: C|
L: 1/8
K: D
% - - - - - - - - - - - - - - - - - - - - - - - - - - - - -
[|\
D2-D>B (A<F F)>B | A<FB<G A<FA<d |\
D2-D>B A<FF>A | (3Bcd (3AGF E2-E<e |
D2-D>B A<FF>B | A<FB<F A<FA<d |\
D2-D>B A<FF>A | (3Bcd (3AGF E2-(E<g) |]
|:\
f<dd>f e<cc>e | d<BB>d A<FF>g |\
f<dd>f e<cc>A | (3Bcd (3AGF E2-(E<g) |
f<dd>f e<cc>e | d<BB>d A<FF>D |\
(3EFG (3FGA (3GAB (3ABc | (3dcB (3AGF E2-(E<e) |]
% - - - - - - - - - - - - - - - - - - - - - - - - - - - - -

%%sep 1 1 500
%%sep 1 1 500
